X:4
T:2. Mon amy
T:(Ronde 2)
C:Tielman Susato
S:Tileman Susato: Danserye (1551)
R:Ronde
M:4/2
L:1/2
T:Bassus
K:C bass
d2dd|A2ef|c2ff|A2AA::f3/2e/4d/4cA-|A/2B/2cdd|Gcd2|
%
A2d2::ddc>A|ddc>A|ddcc|d>dGA|d2d>d|GAd2:|
